X: 11010
T: The BOW MAKER
C: Bob McQuillen 5 Feb 2002
B: Bob's Note Book 11 #10
%R: jig
Z: 2020 John Chambers <jc:trillian.mit.edu>
M: 6/8
L: 1/8
K: C
A \
| GAc A2c | GcA GEC | EGc AFA | GcE D2E |\
| GAc A2c | Gcd ega | gec dcA | GcB c2 :|
|: d \
| ece dcA | GAG Gcd | ege def | ecA A2G |\
| AcA Gce | dcA GEC | EGc ege | dcB c2 :|
%%begintext align
%% Roger Treat lives over across the
%% Connecticut River in Putney, VT, and he has become a celebrated
%% bow maker (did you see the great article about him in "Fiddler Maagazine"?)
%% Old New England likes both, Roger and his bows. They're great!
%%endtext
%%begintext align
%% P.S. Bk.6. #83, 21 Aug.'81: "It sure is fun to hear Roger Treat
%% when it's his turn to iddle as the Monday Night dance. 20-plus
%% years later and it's still fun, Roger! (same dance!) See you Monday!
%%endtext

%%sep 1 1 500

%%sep 1 1 500

